src/images/wallet.svg

<svg fill="none" height="108" viewBox="0 0 396 108" width="396" xmlns="http://www.w3.org/2000/svg" xmlns:xlink="http://www.w3.org/1999/xlink"><linearGradient id="a" gradientUnits="userSpaceOnUse" x1="3.6066" x2="104.373" y1="104.374" y2="3.60731"><stop offset=".2111" stop-color="#fff"/><stop offset=".4152" stop-color="#fff" stop-opacity="0"/><stop offset=".5884" stop-color="#fff" stop-opacity="0"/><stop offset=".806" stop-color="#fff"/></linearGradient><path d="m380.5 0h-263.5c2.9 3.4 4.5 7.79999 4.5 12.4v83.3c0 4.6-1.6 8.9-4.5 12.3h263.5c8.3 0 15-6.7 15-15v-78c0-8.3-6.7-15-15-15z" fill="#fff" opacity=".1"/><path d="m12.3 108c3.6 0 7-1.6 9.3-4.3l84.4-97.9c-2.2-3.5-6-5.8-10.5-5.8-3.6 0-7 1.5-9.3 4.2l-84.7 97.4c2.1 3.8 6.2 6.4 10.8 6.4z" fill="url(#a)"/><g fill="#fff"><path d="m12.3 108c2 0 3.9-.5 5.7-1.4v-81.8l65.6 78.7c2.3 2.8 5.8 4.4 9.5 4.4h2.6c6.8 0 12.3-5.5 12.3-12.3v-83.3c0-6.8-5.5-12.3-12.3-12.3-2 0-3.9.499994-5.6 1.39999v81.80001l-65.6-78.7c-2.3-2.8-5.8-4.399994-9.5-4.399994h-2.6c-6.9-.0999999-12.4 5.399994-12.4 12.199994v83.3c0 6.9 5.5 12.4 12.3 12.4z"/><path d="m213.467 21.3284c-2.592-.504-4.464.648-4.968 3.384l-10.008 46.2238-9.576-44.4958c-.576-3.24-2.52-5.04-6.264-5.04h-1.008c-3.744 0-5.688 1.8-6.264 5.04l-9.576 44.4958-10.008-46.2238c-.504-2.736-2.304-3.888-4.968-3.384-2.592.576-3.816 2.376-3.24 5.04l11.16 47.6638c.648 3.024 2.736 5.328 6.408 5.328h.936c3.816 0 5.76-2.304 6.408-5.328l9.648-42.5518 9.648 42.5518c.648 3.024 2.592 5.328 6.336 5.328h1.008c3.744 0 5.76-2.304 6.408-5.328l11.16-47.6638c.504-2.664-.576-4.464-3.24-5.04z"/><path d="m236.747 37.6004c-6.696 0-12.888 2.448-15.336 6.9839-.936 1.584-.216 3.816 2.664 4.752 1.944.576 3.096-.144 3.888-1.008 2.232-2.88 5.184-4.32 8.784-4.32 5.328 0 8.856 3.312 8.856 8.424v2.952h-13.536c-7.848 0-12.96 4.176-12.96 10.656v2.3759c0 6.768 5.256 11.304 13.032 11.304 6.12 0 11.016-2.304 14.04-6.12v1.8c.072 2.664 1.512 4.176 3.96 4.176 2.376 0 3.672-1.584 3.672-4.248v-23.4719c0-8.568-6.84-14.2559-17.064-14.2559zm-2.232 35.4958c-4.32 0-7.2-2.232-7.2-5.6159v-1.0801c0-3.2399 2.592-5.1839 6.552-5.1839h11.736v2.6639c0 5.544-4.464 9.216-11.088 9.216z"/><path d="m270.453 79.5762c2.448 0 4.32-1.224 4.32-3.312 0-1.8-1.008-2.448-1.872-2.952-1.44-.576-2.232-1.728-2.232-3.456v-44.4238c0-2.664-1.44-4.248-4.104-4.248-2.592 0-4.104 1.584-4.104 4.248v45.5758c0 5.112 3.24 8.568 7.992 8.568z"/><path d="m288.734 79.5762c2.448 0 4.32-1.224 4.32-3.312 0-1.8-1.008-2.448-1.872-2.952-1.44-.576-2.232-1.728-2.232-3.456v-44.4238c0-2.664-1.44-4.248-4.104-4.248-2.591 0-4.103 1.584-4.103 4.248v45.5758c0 5.112 3.24 8.568 7.991 8.568z"/><path d="m315.584 37.6004c-10.872 0-18.072 6.9119-18.072 17.3519v7.416c0 10.4399 7.344 17.3519 18.288 17.3519 7.2 0 13.464-2.592 16.056-7.272.864-1.584.216-3.816-2.664-4.752-1.944-.576-3.168.144-3.888 1.008-2.304 3.024-5.616 4.608-9.504 4.608-6.048 0-10.08-4.32-10.08-10.8719v-1.224h24.408c2.232 0 3.456-1.296 3.456-3.456v-2.808c0-10.44-7.2-17.3519-18-17.3519zm9.792 17.7839h-19.656v-.576c0-6.48 3.888-10.8 9.864-10.8 5.904 0 9.792 4.32 9.792 10.8z"/><path d="m357.51 72.4482h-2.16c-2.448 0-4.104-1.656-4.104-4.176v-23.3999h6.984c2.232 0 3.456-1.224 3.456-3.312 0-2.0879-1.224-3.2399-3.456-3.2399h-6.984v-7.344c0-2.664-1.368-4.176-3.96-4.176s-4.032 1.512-4.032 4.176v7.344h-3.528c-2.16 0-3.456 1.152-3.456 3.2399 0 2.088 1.296 3.312 3.456 3.312h3.312v23.8319c0 6.192 4.608 10.296 11.448 10.296h3.024c2.232 0 3.456-1.224 3.456-3.24 0-2.088-1.224-3.312-3.456-3.312z"/></g></svg>

<svg width="396" height="108" viewBox="0 0 396 108" fill="none" xmlns="http://www.w3.org/2000/svg">
<path opacity="0.1" d="M380.5 0H117C119.9 3.4 121.5 7.79999 121.5 12.4V95.7C121.5 100.3 119.9 104.6 117 108H380.5C388.8 108 395.5 101.3 395.5 93V15C395.5 6.7 388.8 0 380.5 0Z" fill="white"/>
<path d="M12.3 108C15.9 108 19.3 106.4 21.6 103.7L106 5.8C103.8 2.3 100 0 95.5 0C91.9 0 88.5 1.5 86.2 4.2L1.5 101.6C3.6 105.4 7.7 108 12.3 108Z" fill="url(#paint0_linear)"/>
<path d="M12.3 108C14.3 108 16.2 107.5 18 106.6V24.8L83.6 103.5C85.9 106.3 89.4 107.9 93.1 107.9H95.7C102.5 107.9 108 102.4 108 95.6V12.3C108 5.5 102.5 0 95.7 0C93.7 0 91.8 0.499994 90.1 1.39999V83.2L24.5 4.5C22.2 1.7 18.7 0.100006 15 0.100006H12.4C5.5 6.10203e-06 0 5.5 0 12.3V95.6C0 102.5 5.5 108 12.3 108Z" fill="white"/>
<path d="M213.467 21.3284C210.875 20.8244 209.003 21.9764 208.499 24.7124L198.491 70.9362L188.915 26.4404C188.339 23.2004 186.395 21.4004 182.651 21.4004H181.643C177.899 21.4004 175.955 23.2004 175.379 26.4404L165.803 70.9362L155.795 24.7124C155.291 21.9764 153.491 20.8244 150.827 21.3284C148.235 21.9044 147.011 23.7044 147.587 26.3684L158.747 74.0322C159.395 77.0562 161.483 79.3602 165.155 79.3602H166.091C169.907 79.3602 171.851 77.0562 172.499 74.0322L182.147 31.4804L191.795 74.0322C192.443 77.0562 194.387 79.3602 198.131 79.3602H199.139C202.883 79.3602 204.899 77.0562 205.547 74.0322L216.707 26.3684C217.211 23.7044 216.131 21.9044 213.467 21.3284Z" fill="white"/>
<path d="M236.747 37.6004C230.051 37.6004 223.859 40.0484 221.411 44.5843C220.475 46.1683 221.195 48.4003 224.075 49.3363C226.019 49.9123 227.171 49.1923 227.963 48.3283C230.195 45.4483 233.147 44.0083 236.747 44.0083C242.075 44.0083 245.603 47.3203 245.603 52.4323V55.3843H232.067C224.219 55.3843 219.107 59.5603 219.107 66.0403V68.4162C219.107 75.1842 224.363 79.7202 232.139 79.7202C238.259 79.7202 243.155 77.4162 246.179 73.6002V75.4002C246.251 78.0642 247.691 79.5762 250.139 79.5762C252.515 79.5762 253.811 77.9922 253.811 75.3282V51.8563C253.811 43.2883 246.971 37.6004 236.747 37.6004ZM234.515 73.0962C230.195 73.0962 227.315 70.8642 227.315 67.4803V66.4002C227.315 63.1603 229.907 61.2163 233.867 61.2163H245.603V63.8802C245.603 69.4242 241.139 73.0962 234.515 73.0962Z" fill="white"/>
<path d="M270.453 79.5762C272.901 79.5762 274.773 78.3522 274.773 76.2642C274.773 74.4642 273.765 73.8162 272.901 73.3122C271.461 72.7362 270.669 71.5842 270.669 69.8562V25.4324C270.669 22.7684 269.229 21.1844 266.565 21.1844C263.973 21.1844 262.461 22.7684 262.461 25.4324V71.0082C262.461 76.1202 265.701 79.5762 270.453 79.5762Z" fill="white"/>
<path d="M288.734 79.5762C291.182 79.5762 293.054 78.3522 293.054 76.2642C293.054 74.4642 292.046 73.8162 291.182 73.3122C289.742 72.7362 288.95 71.5842 288.95 69.8562V25.4324C288.95 22.7684 287.51 21.1844 284.846 21.1844C282.255 21.1844 280.743 22.7684 280.743 25.4324V71.0082C280.743 76.1202 283.983 79.5762 288.734 79.5762Z" fill="white"/>
<path d="M315.584 37.6004C304.712 37.6004 297.512 44.5123 297.512 54.9523V62.3683C297.512 72.8082 304.856 79.7202 315.8 79.7202C323 79.7202 329.264 77.1282 331.856 72.4482C332.72 70.8642 332.072 68.6322 329.192 67.6962C327.248 67.1202 326.024 67.8402 325.304 68.7042C323 71.7282 319.688 73.3122 315.8 73.3122C309.752 73.3122 305.72 68.9922 305.72 62.4403V61.2163H330.128C332.36 61.2163 333.584 59.9203 333.584 57.7603V54.9523C333.584 44.5123 326.384 37.6004 315.584 37.6004ZM325.376 55.3843H305.72V54.8083C305.72 48.3283 309.608 44.0083 315.584 44.0083C321.488 44.0083 325.376 48.3283 325.376 54.8083V55.3843Z" fill="white"/>
<path d="M357.51 72.4482H355.35C352.902 72.4482 351.246 70.7922 351.246 68.2722V44.8723H358.23C360.462 44.8723 361.686 43.6483 361.686 41.5603C361.686 39.4724 360.462 38.3204 358.23 38.3204H351.246V30.9764C351.246 28.3124 349.878 26.8004 347.286 26.8004C344.694 26.8004 343.254 28.3124 343.254 30.9764V38.3204H339.726C337.566 38.3204 336.27 39.4724 336.27 41.5603C336.27 43.6483 337.566 44.8723 339.726 44.8723H343.038V68.7042C343.038 74.8962 347.646 79.0002 354.486 79.0002H357.51C359.742 79.0002 360.966 77.7762 360.966 75.7602C360.966 73.6722 359.742 72.4482 357.51 72.4482Z" fill="white"/>
<defs>
<linearGradient id="paint0_linear" x1="3.6066" y1="104.374" x2="104.373" y2="3.60731" gradientUnits="userSpaceOnUse">
<stop offset="0.2111" stop-color="white"/>
<stop offset="0.4152" stop-color="white" stop-opacity="0"/>
<stop offset="0.5884" stop-color="white" stop-opacity="0"/>
<stop offset="0.806" stop-color="white"/>
</linearGradient>
</defs>
</svg>
